X: 10370
T: Donal O'Connor's
R: slide
M: 12/8
K: Gmajor
|:A|B3 cBA G2 E D2 D|EFG A2 B c3 cBA|
BcB cBA G2 E D3|EFG AFD G3 G2:|
|:E|D2 B BAB d2 B BAB|D2 G A2 B c2 A ABA|
D2 B BAB d2 B BA[GB]|ABA FGA G3- G2:|

